apps/www/public/images/realtime/example-apps/realtime-image/shared-editor.svg

<svg width="337" height="211" viewBox="0 0 337 211" fill="none" xmlns="http://www.w3.org/2000/svg">
<g clip-path="url(#clip0_928_17340)">
<path d="M15.9889 58H320.082C328.903 58 336.071 65.1372 336.071 73.9343V213.329H0V73.9343C0 65.1431 7.1617 58 15.9889 58Z" fill="#161616"/>
<path d="M197.789 79.9403L183.082 42.5535C182.724 41.6466 183.598 40.7462 184.511 41.0659L223.131 54.5917C224.117 54.9375 224.156 56.3142 223.19 56.7122L207.309 63.25C207.035 63.3609 206.813 63.5828 206.696 63.8568L199.89 79.9664C199.492 80.906 198.161 80.8864 197.789 79.9403ZM301.598 83.3593C301.598 74.0615 294.062 66.5254 284.764 66.5254H224.86C215.563 66.5254 208.027 74.0615 208.027 83.3593C208.027 92.657 215.563 100.193 224.86 100.193H284.764C294.062 100.193 301.598 92.657 301.598 83.3593Z" fill="#3FCF8E"/>
<path d="M242.653 86.1452C244.167 86.1452 245.394 84.9183 245.394 83.4048C245.394 81.8913 244.167 80.6644 242.653 80.6644C241.14 80.6644 239.913 81.8913 239.913 83.4048C239.913 84.9183 241.14 86.1452 242.653 86.1452Z" fill="white"/>
<path d="M253.315 86.1452C254.828 86.1452 256.055 84.9183 256.055 83.4048C256.055 81.8913 254.828 80.6644 253.315 80.6644C251.801 80.6644 250.574 81.8913 250.574 83.4048C250.574 84.9183 251.801 86.1452 253.315 86.1452Z" fill="white"/>
<path d="M263.97 86.1452C265.483 86.1452 266.71 84.9183 266.71 83.4048C266.71 81.8913 265.483 80.6644 263.97 80.6644C262.456 80.6644 261.229 81.8913 261.229 83.4048C261.229 84.9183 262.456 86.1452 263.97 86.1452Z" fill="white"/>
<path d="M89.3298 138.436L82.6216 122.547C82.5041 122.273 82.2888 122.057 82.0147 121.946L66.3469 115.499C65.3942 115.108 65.4334 113.744 66.4057 113.404L104.508 100.066C105.415 99.7465 106.27 100.641 105.918 101.535L91.4114 138.417C91.046 139.35 89.7279 139.369 89.3363 138.443L89.3298 138.436ZM81.3099 141.784C81.3099 132.609 73.8709 125.176 64.7025 125.176H5.60744C-3.56744 125.176 -11 132.616 -11 141.784C-11 150.959 -3.56091 158.391 5.60744 158.391H64.7025C73.8774 158.391 81.3099 150.952 81.3099 141.784Z" fill="#7E7E7E"/>
<path d="M247.33 167.436L240.622 151.547C240.504 151.273 240.289 151.057 240.015 150.946L224.347 144.499C223.394 144.108 223.433 142.744 224.406 142.404L262.508 129.066C263.415 128.747 264.27 129.641 263.918 130.535L249.411 167.417C249.046 168.35 247.728 168.369 247.336 167.443L247.33 167.436ZM239.31 170.784C239.31 161.609 231.871 154.176 222.703 154.176H163.607C154.433 154.176 147 161.616 147 170.784C147 179.959 154.439 187.391 163.607 187.391H222.703C231.877 187.391 239.31 179.952 239.31 170.784Z" fill="#7E7E7E"/>
</g>
<defs>
<clipPath id="clip0_928_17340">
<rect width="336.071" height="210.832" fill="white"/>
</clipPath>
</defs>
</svg>

<svg xmlns="http://www.w3.org/2000/svg" width="337" height="211" fill="none" viewBox="0 0 337 211"><g clip-path="url(#a)"><path fill="#161616" d="M15.989 58h304.093c8.821 0 15.989 7.137 15.989 15.934V213.33H0V73.934C0 65.144 7.162 58 15.989 58"/><path fill="#3fcf8e" d="m197.789 79.94-14.707-37.386c-.358-.907.516-1.808 1.429-1.488l38.62 13.526c.986.346 1.025 1.722.059 2.12l-15.881 6.538c-.274.11-.496.333-.613.607l-6.806 16.11c-.398.939-1.729.92-2.101-.027m103.809 3.42c0-9.299-7.536-16.835-16.834-16.835H224.86c-9.297 0-16.833 7.536-16.833 16.834s7.536 16.834 16.833 16.834h59.904c9.298 0 16.834-7.536 16.834-16.834"/><path fill="#fff" d="M242.653 86.145a2.74 2.74 0 1 0 0-5.48 2.74 2.74 0 0 0 0 5.48M253.315 86.145a2.74 2.74 0 1 0 0-5.48 2.74 2.74 0 0 0 0 5.48M263.97 86.145a2.74 2.74 0 1 0 0-5.48 2.74 2.74 0 0 0 0 5.48"/><path fill="#7e7e7e" d="m89.33 138.436-6.708-15.889a1.12 1.12 0 0 0-.607-.601l-15.668-6.447c-.953-.391-.914-1.755.059-2.095l38.102-13.338c.907-.32 1.762.575 1.41 1.469l-14.507 36.882c-.365.933-1.683.952-2.075.026zm-8.02 3.348c0-9.175-7.44-16.608-16.607-16.608H5.607c-9.174 0-16.607 7.44-16.607 16.608 0 9.175 7.44 16.607 16.607 16.607h59.096c9.174 0 16.607-7.439 16.607-16.607M247.33 167.436l-6.708-15.889a1.12 1.12 0 0 0-.607-.601l-15.668-6.447c-.953-.391-.914-1.755.059-2.095l38.102-13.338c.907-.319 1.762.575 1.41 1.469l-14.507 36.882c-.365.933-1.683.952-2.075.026zm-8.02 3.348c0-9.175-7.439-16.608-16.607-16.608h-59.096c-9.174 0-16.607 7.44-16.607 16.608 0 9.175 7.439 16.607 16.607 16.607h59.096c9.174 0 16.607-7.439 16.607-16.607"/></g><defs><clipPath id="a"><path fill="#fff" d="M0 0h336.071v210.832H0z"/></clipPath></defs></svg>
